web/ui/src/assets/svgs/index/workflow-label.svg

<svg height="24" viewBox="0 0 24 24" width="24" xmlns="http://www.w3.org/2000/svg"><g fill="none"><path d="m0 0h24v24h-24z" fill="#000" opacity="0"/><path d="m18.75 7.5c-2.06775 0-3.75 1.68225-3.75 3.75 0 .41025.0825.79875.2055 1.16925-1.7775.63675-3.6.49575-5.55525-.44625-1.803-.8685-2.96925-1.9095-3.4815-3.09975 1.62225-.41325 2.83125-1.87425 2.83125-3.62325 0-2.06775-1.68225-3.75-3.75-3.75s-3.75 1.68225-3.75 3.75c.00260403 1.78104384 1.25546283 3.31548266 3 3.67425v6.1515c-1.74453717.3587673-2.99739597 1.8932062-3 3.67425 0 2.06775 1.68225 3.75 3.75 3.75s3.75-1.68225 3.75-3.75c-.00260403-1.7810438-1.25546283-3.3154827-3-3.67425v-3.822c.74775.7755 1.749 1.46775 2.99925 2.06925 1.36425.65775 2.7105.98625 4.0275.98625.9975 0 1.97625-.20025 2.9355-.57675.687.77175 1.67625 1.2675 2.78775 1.2675 2.06775 0 3.75-1.68225 3.75-3.75s-1.68225-3.75-3.75-3.75zm-15.75-2.25c0-1.2405 1.0095-2.25 2.25-2.25s2.25 1.0095 2.25 2.25-1.0095 2.25-2.25 2.25-2.25-1.0095-2.25-2.25zm4.5 13.5c0 1.2405-1.0095 2.25-2.25 2.25s-2.25-1.0095-2.25-2.25 1.0095-2.25 2.25-2.25 2.25 1.0095 2.25 2.25zm11.25-5.25c-1.2405 0-2.25-1.0095-2.25-2.25s1.0095-2.25 2.25-2.25 2.25 1.0095 2.25 2.25-1.0095 2.25-2.25 2.25z" fill="#6b7b8d"/></g></svg>

<?xml version="1.0" encoding="UTF-8"?>
<svg width="24px" height="24px" viewBox="0 0 24 24" version="1.1" xmlns="http://www.w3.org/2000/svg" xmlns:xlink="http://www.w3.org/1999/xlink">
    <title>workflow备份 2</title>
    <g id="页面-1" stroke="none" stroke-width="1" fill="none" fill-rule="evenodd">
        <g id="建木自动化-首页" transform="translate(-760.000000, -459.000000)" fill-rule="nonzero">
            <g id="workflow备份-2" transform="translate(760.000000, 459.000000)">
                <rect id="矩形" fill="#000000" opacity="0" x="0" y="0" width="24" height="24"></rect>
                <path d="M18.75,7.5 C16.68225,7.5 15,9.18225 15,11.25 C15,11.66025 15.0825,12.04875 15.2055,12.41925 C13.428,13.056 11.6055,12.915 9.65025,11.973 C7.84725,11.1045 6.681,10.0635 6.16875,8.87325 C7.791,8.46 9,6.999 9,5.25 C9,3.18225 7.31775,1.5 5.25,1.5 C3.18225,1.5 1.5,3.18225 1.5,5.25 C1.50260403,7.03104384 2.75546283,8.56548266 4.5,8.92425 L4.5,15.07575 C2.75546283,15.4345173 1.50260403,16.9689562 1.5,18.75 C1.5,20.81775 3.18225,22.5 5.25,22.5 C7.31775,22.5 9,20.81775 9,18.75 C8.99739597,16.9689562 7.74453717,15.4345173 6,15.07575 L6,11.25375 C6.74775,12.02925 7.749,12.7215 8.99925,13.323 C10.3635,13.98075 11.70975,14.30925 13.02675,14.30925 C14.02425,14.30925 15.003,14.109 15.96225,13.7325 C16.64925,14.50425 17.6385,15 18.75,15 C20.81775,15 22.5,13.31775 22.5,11.25 C22.5,9.18225 20.81775,7.5 18.75,7.5 Z M3,5.25 C3,4.0095 4.0095,3 5.25,3 C6.4905,3 7.5,4.0095 7.5,5.25 C7.5,6.4905 6.4905,7.5 5.25,7.5 C4.0095,7.5 3,6.4905 3,5.25 Z M7.5,18.75 C7.5,19.9905 6.4905,21 5.25,21 C4.0095,21 3,19.9905 3,18.75 C3,17.5095 4.0095,16.5 5.25,16.5 C6.4905,16.5 7.5,17.5095 7.5,18.75 Z M18.75,13.5 C17.5095,13.5 16.5,12.4905 16.5,11.25 C16.5,10.0095 17.5095,9 18.75,9 C19.9905,9 21,10.0095 21,11.25 C21,12.4905 19.9905,13.5 18.75,13.5 Z" id="形状" fill="#6B7B8D"></path>
            </g>
        </g>
    </g>
</svg>
